!!!COM: Palestrina, Giovanni Perluigi da
!!!OPR: Quam pulchra es
!!!OTL: Kyrie
**kern	**kern	**kern	**kern
*Ibass	*Itenor	*Icalto	*Icant
!Bassus	!Tenor	!Altus	!Cantus
*clefF4	*clefGv2	*clefG2	*clefG2
*k[]	*k[]	*k[]	*k[]
*C:ion	*C:ion	*C:ion	*C:ion
*M4/2	*M4/2	*M4/2	*M4/2
=1	=1	=1	=1
0r	1r	1.g	0r
.	[1c	.	.
.	.	2g	.
=2	=2	=2	=2
0r	2c]	1a	0r
.	2c	.	.
.	1d	1b	.
=3	=3	=3	=3
0r	1e	2r	0r
.	.	2g	.
.	2r	2a	.
.	2c	2cc	.
=4	=4	=4	=4
0r	2d	2b	1r
.	1f	1a	.
.	.	.	[1cc
.	4e	4g	.
.	4d	4f	.
=5	=5	=5	=5
0r	2e	2g	2cc]
.	2f	2a	2cc
.	1d	4f	1dd
.	.	4g	.
.	.	4a	.
.	.	4b	.
=6	=6	=6	=6
0r	2c	2cc	1ee
.	2e	2g	.
.	2f	2a	2r
.	2a	2cc	2cc
=7	=7	=7	=7
0r	2g	2b	2dd
.	2f	2a	2ff
.	2.g	2.b	2ee
.	.	.	2dd
.	4f	4a	.
=8	=8	=8	=8
1r	4e	4g	2.ee
.	4d	4f	.
.	2c	2e	.
.	.	.	4dd
[1F	[1f	2a	4cc
.	.	.	4b
.	.	[2cc	4a
.	.	.	4g
=9	=9	=9	=9
2F]	1f]	4cc]	4a
.	.	4b	4b
2F	.	2a	1cc
1G	1d	1g	.
.	.	.	2b
=10	=10	=10	=10
1A	2r	2r	1cc
.	2c	2e	.
2r	2d	2f	1a
2F	2f	2a	.
=11	=11	=11	=11
2G	2e	2g	2b
2B-	2d	2f	2dd
2A	2.e	2a	2cc
2G	.	2b	2b
.	4d	.	.
=12	=12	=12	=12
2.A	4c	2.cc	1a
.	4B	.	.
.	2A	.	.
4G	.	4b	.
4F	1d	4a	1r
4E	.	4g	.
2D	.	2f	.
=13	=13	=13	=13
2.A	2c	2.e	2r
.	2.e	.	1cc
8G	.	4f	.
8F	.	.	.
2E	.	2g	.
.	4d	.	.
2F	[2c	[2f	2cc
=14	=14	=14	=14
1D	4c]	2f]	1dd
.	4B	.	.
.	4B	2f	.
.	4A	.	.
1C	[1c	1g	1ee
=15	=15	=15	=15
1F	1c]	1a	2r
.	.	.	2cc
1D	1r	2r	2dd
.	.	2f	2ff
=16	=16	=16	=16
0r	0r	2g	2ee
.	.	2b-	2dd
.	.	2a	2.ee
.	.	2g	.
.	.	.	4dd
=17	=17	=17	=17
1F	0r	4a	4cc
.	.	4g	4b-
.	.	4f	2a
.	.	4e	.
2G	.	1d	2b-
2B-	.	.	2dd
=18	=18	=18	=18
2A	1r	2e	2cc
2G	.	2g	2b-
1A	2r	2f	2a
.	2c	2e	[2cc
=19	=19	=19	=19
0r	2d	1d	2cc]
.	2f	.	2b
.	2e	2c	2cc
.	2d	2B	2dd
=20	=20	=20	=20
0r	2.e	1c	2g
.	.	.	4gg
.	4d	.	4ff
.	4c	2r	4ee
.	4B	.	4dd
.	2A	2c	[2cc
=21	=21	=21	=21
2r	1G	1d	2cc]
2G	.	.	2b
2A	2r	2f	2a
2c	2c	2e	[2g
=22	=22	=22	=22
2B	2d	2d	2g]
2A	1f	2c	2.a
2B	.	2d	.
.	.	.	4g
2c	[2e	2e	[2g
=23	=23	=23	=23
1A	4e]	1c	2g]
.	4d	.	.
.	1c	.	2f#
1G	.	1d	1g
.	2B	.	.
=24	=24	=24	=24
2r	1c	2e	1g
2E	.	2g	.
2F	2r	2f	2a
2A	2c	2e	2cc
=25	=25	=25	=25
2G	2d	2g	2b
2F	2f	2a	2a
2.G	2e	1g	2.b
.	2d	.	.
4F	.	.	4a
=26	=26	=26	=26
4E	2.e	2.g	4g
4D	.	.	4f
2C	.	.	2e
.	4d	4f	.
2E	4c	4e	2g
.	4B	4d	.
[2F	2A	2c	[2a
=27	=27	=27	=27
4F]	1c	1f	4a]
4G	.	.	4b
2A	.	.	1cc
1G	1d	1g	.
.	.	.	2b
=28	=28	=28	=28
0C	0c	0e	0cc
=29	=29	=29	=29
0r	0r	1e	0r
.	.	2g	.
.	.	2g	.
=30	=30	=30	=30
0r	1A	1a	0r
.	2c	2g	.
.	2c	2e	.
=31	=31	=31	=31
0r	1d	1f	1a
.	2c	2e	2cc
.	2A	[2a	2cc
=32	=32	=32	=32
0r	1B	2a]	1dd
.	.	2g#	.
.	1A	2a	2cc
.	.	2e	2a
=33	=33	=33	=33
1E	2r	1.g	0b
.	2e	.	.
2G	2d	.	.
2G	2B	2g	.
=34	=34	=34	=34
1A	1c	2e	2a
.	.	2c	2e
2G	1B	2d	2g
2E	.	[2e	2g
=35	=35	=35	=35
1F	2r	2e]	1a
.	2A	2d	.
2E	2c	1e	2g
2A	2c	.	2e
=36	=36	=36	=36
4D	1d	1r	1f
4E	.	.	.
4F	.	.	.
4G	.	.	.
4A	2c	2r	2e
4B	.	.	.
2c	2A	2e	2ee
=37	=37	=37	=37
1G	1B	2g	2dd
.	.	2g	2b
1r	1A	1a	1cc
=38	=38	=38	=38
2r	0r	2g	2b
2G	.	2e	1ee
2A	.	1f	.
2B	.	.	2dd
=39	=39	=39	=39
1.c	2r	1e	1ee
.	2c	.	.
.	2.e	2r	1r
2A	.	2c	.
.	4f	.	.
=40	=40	=40	=40
2B	1g	2d	2r
2c	.	2e	2g
1F	2r	2.f	2.a
.	[2f	.	.
.	.	4g	4b
=41	=41	=41	=41
2r	2f]	2a	0cc
2c	4e	4g	.
.	4d	4f	.
2c	1e	1g	.
2c	.	.	.
=42	=42	=42	=42
2d	2f	2r	1r
2B	2d	2g	.
2.c	[1e	2g	2r
.	.	2g	2cc
4B	.	.	.
=43	=43	=43	=43
4A	1e]	4a	2cc
4G	.	4b	.
2A	.	4cc	2cc
.	.	4a	.
1G	2r	4b	2dd
.	.	4a	.
.	2g	4g	2b
.	.	4f	.
=44	=44	=44	=44
1C	2g	2.e	1.cc
.	2g	.	.
.	.	4d	.
1r	2a	2c	.
.	2f	2d	2a
=45	=45	=45	=45
0r	2.g	2G	2b
.	.	4c	2.cc
.	4f	4d	.
.	4e	4e	.
.	4d	4f	4b
.	2e	[2g	4b
.	.	.	8a
.	.	.	8g
=46	=46	=46	=46
1r	1d	2g]	1a
.	.	2f#	.
2r	1r	[1g	2b
2c	.	.	2ee
=47	=47	=47	=47
2c	0r	1g]	2ee
2c	.	.	2ee
2d	.	2r	2ff
2B	.	2g	2dd
=48	=48	=48	=48
2.c	2r	2g	2.ee
.	2c	2g	.
4B	.	.	4dd
4A	2c	2a	4cc
4G	.	.	4b
2A	2c	2f	2cc
=49	=49	=49	=49
1G	2d	2.g	2b
.	2B	.	2g
.	.	4f	.
2r	2.c	4e	2g
.	.	4d	.
2c	.	[2e	2g
.	4B	.	.
=50	=50	=50	=50
2c	4A	2e]	2a
.	4G	.	.
2c	2A	2c	2f
2d	1G	2B	2.g
2B	.	[2d	.
.	.	.	4f
=51	=51	=51	=51
1c	2r	4d]	4e
.	.	4c	4d
.	2g	1c	2e
1G	2g	.	1d
.	2g	2B	.
=52	=52	=52	=52
0r	2a	2c	2r
.	2f	2d	2dd
.	2.g	2G	2dd
.	.	2g	2dd
.	4f	.	.
=53	=53	=53	=53
1r	4e	2g	2ee
.	4d	.	.
.	2e	2g	2cc
2r	2.d	2a	4dd
.	.	.	4cc
2G	.	4g	4b
.	4c	4f	4a
=54	=54	=54	=54
2G	2B	2.g	1b
2G	2.d	.	.
.	.	4f	.
2A	.	2e	1a
.	4c	.	.
2F	[2c	2f	.
=55	=55	=55	=55
2.G	2c]	1d	[0g
.	2B	.	.
4F	.	.	.
4E	2.e	2c	.
4D	.	.	.
2E	.	2B	.
.	4d	.	.
=56	=56	=56	=56
0C	4e	2.c	1g_
.	4d	.	.
.	4c	.	.
.	4B	4d	.
.	1c	1e	1g_
=57	=57	=57	=57
0G	0B	0d	0g]
=58	=58	=58	=58
0r	1G	1r	0r
.	2A	1d	.
.	2A	.	.
=59	=59	=59	=59
0r	1B	2d	0r
.	.	2d	.
.	2G	1e	.
.	4c	.	.
.	4d	.	.
=60	=60	=60	=60
0r	4e	2c	1g
.	4f	.	.
.	1g	2e	.
.	.	1d	2a
.	2f#	.	2a
=61	=61	=61	=61
0r	2.g	2G	1b
.	.	2B	.
.	4f	.	.
.	4e	4c	2.g
.	4d	4d	.
.	2c	4e	.
.	.	4f#	4a
=62	=62	=62	=62
1G	1d	2.g	4b
.	.	.	4cc
.	.	.	1dd
.	.	4f	.
2A	1r	1e	.
2A	.	.	2cc#
=63	=63	=63	=63
1B	2r	0d	2.dd
.	2.G	.	.
.	.	.	4cc
2.G	.	.	4b
.	4A	.	4a
.	4B	.	[2g
4A	4c	.	.
=64	=64	=64	=64
4B	2d	1r	4g]
4c	.	.	4f
2.d	2B	.	2d
.	1A	2r	2e
4c	.	.	.
[2c	.	2c	2f#
=65	=65	=65	=65
2c]	1G	2d	1g
2B	.	2d	.
2.c	1r	1e	2r
.	.	.	2g
4B	.	.	.
=66	=66	=66	=66
1A	2r	4c	2a
.	.	4d	.
.	2c	4e	2a
.	.	4f#	.
1G	2d	2g	1b
.	2d	2G	.
=67	=67	=67	=67
1r	2e	1.c	0g
.	4c	.	.
.	4d	.	.
1C	4e	.	.
.	4f	.	.
.	[2g	2B	.
=68	=68	=68	=68
2D	2g]	1A	2r
2D	2f#	.	2dd
1E	[1g	2G	2b
.	.	2g	2b
=69	=69	=69	=69
1C	1g]	2e	1cc
.	.	2e	.
1r	2r	1f	2a
.	2d	.	[2dd
=70	=70	=70	=70
1G	2B	2d	4dd]
.	.	.	4cc
.	2B	2.g	4b
.	.	.	4a
2E	1c	.	1g
.	.	4f	.
2E	.	4e	.
.	.	4d	.
=71	=71	=71	=71
1F	2A	1c	2r
.	1c	.	2cc
1D	.	1r	2dd
.	2B	.	2dd
=72	=72	=72	=72
2C	1c	1g	1ee
2E	.	.	.
2F	2r	2a	1cc
2A	2c	2a	.
=73	=73	=73	=73
1G	2d	1b	2r
.	2d	.	2dd
1r	1e	2g	2b
.	.	2g	2b
=74	=74	=74	=74
0r	1c	2e	1cc
.	.	2e	.
.	2r	1f	1a
.	2d	.	.
=75	=75	=75	=75
1r	2B	1d	2g
.	2B	.	2b
2r	1c	2c	4a
.	.	.	4g
2C	.	2e	[2g
=76	=76	=76	=76
2D	1A	2.d	2g]
2D	.	.	2f#
.	.	4c	.
2E	2G	2B	[1g
4C	[2c	[2e	.
4D	.	.	.
=77	=77	=77	=77
4E	2c]	2e]	1g]
4F	.	.	.
4G	2B	4d	.
4A	.	4c	.
4B	2G	2d	2r
4c	.	.	.
[2d	2B	[2g	2d
=78	=78	=78	=78
2d]	1c	4g]	4e
.	.	4f	4f
1c	.	2e	4g
.	.	.	4a
.	1G	2d	4b
.	.	.	4cc
2B	.	2G	[2dd
=79	=79	=79	=79
1A	1r	4A	2dd]
.	.	4B	.
.	.	4c	1cc
.	.	4d	.
1G	2r	4e	.
.	.	4f	.
.	2G	2g	2b
=80	=80	=80	=80
2D	4A	2f	1a
.	4B	.	.
2A	4c	1e	.
.	4d	.	.
2c	4e	.	2.g
.	4f	.	.
4B	[2g	4d	.
4A	.	4c	4a
=81	=81	=81	=81
2G	2g]	2d	4b
.	.	.	4cc
2D	2f	1a	2dd
2.A	2e	.	2cc
.	2c	2a	[2ee
4B	.	.	.
=82	=82	=82	=82
1c	1e	0g	4ee]
.	.	.	4dd
.	.	.	1cc
1G	1d	.	.
.	.	.	2b
=83	=83	=83	=83
0C	0c	0e	0cc
==	==	==	==
*-	*-	*-	*-
!!!CDT: 1525/^1526/-1594/2/2
!!!OCY: Italia
!!!AGN: Mass (Parody)
!!!AST: renaissance, vocal
!!!ASW: Motet 1532 (Johannes Lupi)
!!!PWK: Masses, Book 6
!!!RNB: Cadence finals: G
!!!YOR: Le Opere Complete, v. 21, p. 73
!!!YOO: Rome, Italy: Fratelli Scalera
!!!END: 1992//
!!!EED: John Miller
!!!YEC: Copyright 2000, John Miller
!!!YEN: United States of America
!!!YEM: Rights to all derivative electronic formats reserved.
!!!YEM: Refer to licensing agreement for further details.
!!!YEM: This file must be accompanied by the licensing agreement.
!!!YEM: A copy of the licensing agreement may be found at http://www.music-cog.ohio-state.edu/HumdrumDatabases/Palestrina/license.txt
!!!EMD: converted to Humdrum by Bret Aarden
